X:11730
T:New Found Out, The
R:reel
D:Providence: Providence
Z:Devin McCabe
M:C|
L:1/8
K:D
A3B AFFA|(3Bcd cA G3B|A~F3 ABdf|1eBBA BcdB:|2eBBA Bcde||
!~f3d ~g3e|~f3d ecde|fdde gabg|afed efga|
!b~f3 afec|defd efdB|A~F3 ABdf|eBBA BcdB||
